X:1
T:The Shadow of the Rock
T:The Shadow of the Rock
T:Frank Marion Davis
T:Annie E.Thomson, 1877
T:Public Domain Courtesy of the Cyber Hymnal™
C:Frank Marion Davis
Z:Public Domain
Z:Courtesy of the Cyber Hymnal™
%%score ( 1 2 ) 3
L:1/8
Q:1/4=90
M:3/4
K:Eb
V:1 treble 
V:2 treble 
V:3 bass 
V:1
 [EG]>[FA] | [GB]3 [^F=A] [GB]>[_Ac] | [GB] [EG]3 E>[EF] | [EG]3 [EG] [DA]>[EG] | [DF]4 [EG]>[FA] | %5
w: 1.~In a|wea- ry land I|wan- der, And with|fal- tering steps I|walk; But I|
w: 2.~Here my|toils are un- a-|bat- ing, And rude|cares a- bout me|mock; But my|
w: 3.~In these|pas- tures fair and|ver- nal, With my|Shep- herd’s cho- sen|flock I shall|
w: 4.~By these|wa- ters gent- ly|flow- ing, I shall|fear no tem- pest’s|shock, And no|
w: 5.~So with|pa- tient faith I’ll|wan- der, And with|lov- ing trust will|walk, For I’ll|
 [GB]3 [^F=A] [GB]>[_Ac] | [GB] [EG]3 E>[EF] | [EG]3 [EA] [EG]>[DF] | E4 ||"^Refrain" [EG]>[GB] | %10
w: soon shall rest up|yon- der In the|sha- dow of the|Rock.||
w: rest is yon- der|wait- ing, In the|sha- dow of the|Rock.||
w: feast on joys e-|ter- nal In the|sha- dow of the|Rock.|In the|
w: want or grief be|know- ing, In the|sha- dow of the|Rock.||
w: soon be rest- ing|yon- der In the|sha- dow of the|Rock.||
 [Ge]3 [Bd] [Ac]>[A=B] | [Ac]4 [Ac]>[Ad] | [Ge]3 [GB] [EG]>E | [DF]4 [EG]>[FA] | %14
w: ||||
w: ||||
w: sha- dow of the|Rock, In the|sha- dow of the|Rock, I will|
w: ||||
w: ||||
 [GB]3 [^F=A] [GB]>[_Ac] | [GB] [EG]3 E>[EF] | [EG]3 [EA] [EG]>[DF] | E4 |] %18
w: ||||
w: ||||
w: soon be rest- ing|yon- der In the|sha- dow of the|Rock.|
w: ||||
w: ||||
V:2
 x2 | x6 | x4 E3/2 x/ | x6 | x6 | x6 | x4 E3/2 x/ | x6 | E4 || x2 | x6 | x6 | x11/2 E/ | x6 | x6 | %15
 x4 E3/2 x/ | x6 | E4 |] %18
V:3
 [E,B,]>[E,B,] | [E,E]3 [E,E] [E,E]>[E,E] | [E,E] [E,B,]3 [E,G,]>[F,A,] | %3
 [E,B,]3 [E,B,] [F,B,]>[E,B,] | [B,,B,]4 [E,B,]>[E,B,] | [E,E]3 [E,E] [E,E]>[E,E] | %6
 [E,E] [E,B,]3 [E,G,]>[E,A,] | [E,B,]3 [A,,C] [B,,B,]>[B,,A,] | [E,G,]4 || [E,B,]>[E,B,] | %10
 [E,B,]3 [G,B,] [A,E]>[A,D] | [A,E]4 [A,E]>[A,C] | [E,B,]3 [E,B,] [E,B,]>[E,G,] | %13
 [B,,B,]4 [E,B,]>[E,B,] | [E,E]3 [E,E] [E,E]>[E,E] | [E,E] [E,B,]3 [E,G,]>[E,A,] | %16
 [E,B,]3 [A,,C] [B,,B,]>[B,,A,] | [E,G,]4 |] %18

